X:1
T: Miss Isaac Forsyth of Elgin
C:William Marshall
R:Jig
Q:180
K:F
M:6/8
L:1/16
|:C2|F4B2 ABc2A2|F4f2 f2e2d2|c4d2 c2A2F2|E2G2G2 G4A2|F4B2 ABc2A2|F4f2 f2e2d2|c4d2 c2A2F2|C2F2F2 F4C2|
F4B2 ABc2A2|F4f2 f2e2d2|c4d2 c2A2F2|E2G2G2 G4A2|F4B2 ABc2A2|F4f2 f2e2d2|c4d2 c2A2F2|C2F2F2 F4fg|
a2g2f2 b2a2g2|a2g2f2 g2f2e2|f2e2d2 c2B2A2|B2G2G2 G4fg|a2g2f2 b2a2g2|a2g2f2 g2f2e2|d2e2f2 c2d2B2|A2F2F2 F4fg|
a2g2f2 b2a2g2|a2g2f2 g2f2e2|f2e2d2 c2B2A2|B2G2G2 G4A2|F4B2 ABc2A2|F4f2 f2e2d2|c4f2 e2f2g2|a2f2f2 f4:|
